X: 37062
T: Silver Spear, The
R: reel
M: 4/4
K: Cmajor
EG G2 AGEG|cedc ABcG|EG G2 AGEG|cedc A3 G|
EG G2 AGEG|cedc Acde|f3 d e3 d|1 cedc A2 G2:|2 cedc ABcd||
|:e2 ge aege|fedc ABcd|e2 ge aege|fedc A2 G2|
e2 ge aege|fedc Acde|f3 d e3 d|1 cedc A2 G2:|2 cedc A2||

